static/images/pieces/shogi/ctw/1GY.svg

<?xml version="1.0" encoding="UTF-8" standalone="no"?>
<svg
   xmlns:dc="http://purl.org/dc/elements/1.1/"
   xmlns:cc="http://creativecommons.org/ns#"
   xmlns:rdf="http://www.w3.org/1999/02/22-rdf-syntax-ns#"
   xmlns:svg="http://www.w3.org/2000/svg"
   xmlns="http://www.w3.org/2000/svg"
   xmlns:xlink="http://www.w3.org/1999/xlink"
   xmlns:sodipodi="http://sodipodi.sourceforge.net/DTD/sodipodi-0.dtd"
   xmlns:inkscape="http://www.inkscape.org/namespaces/inkscape"
   width="52.157"
   height="60"
   version="1.1"
   id="svg1717"
   sodipodi:docname="1GY.svg"
   inkscape:version="1.0.1 (3bc2e813f5, 2020-09-07)">
  <metadata
     id="metadata1723">
    <rdf:RDF>
      <cc:Work
         rdf:about="">
        <dc:format>image/svg+xml</dc:format>
        <dc:type
           rdf:resource="http://purl.org/dc/dcmitype/StillImage" />
        <dc:title></dc:title>
      </cc:Work>
    </rdf:RDF>
  </metadata>
  <defs
     id="defs1721">
    <filter
       style="color-interpolation-filters:sRGB"
       inkscape:label="Drop Shadow"
       id="filter1552">
      <feFlood
         flood-opacity="0.498039"
         flood-color="rgb(0,0,0)"
         result="flood"
         id="feFlood1542" />
      <feComposite
         in="flood"
         in2="SourceGraphic"
         operator="in"
         result="composite1"
         id="feComposite1544" />
      <feGaussianBlur
         in="composite1"
         stdDeviation="2.5"
         result="blur"
         id="feGaussianBlur1546" />
      <feOffset
         dx="4.57967e-15"
         dy="4.41314e-15"
         result="offset"
         id="feOffset1548" />
      <feComposite
         in="SourceGraphic"
         in2="offset"
         operator="over"
         result="composite2"
         id="feComposite1550" />
    </filter>
    <filter
       style="color-interpolation-filters:sRGB"
       inkscape:label="Drop Shadow"
       id="filter1540">
      <feFlood
         flood-opacity="0.498039"
         flood-color="rgb(0,0,0)"
         result="flood"
         id="feFlood1530" />
      <feComposite
         in="flood"
         in2="SourceGraphic"
         operator="in"
         result="composite1"
         id="feComposite1532" />
      <feGaussianBlur
         in="composite1"
         stdDeviation="2.5"
         result="blur"
         id="feGaussianBlur1534" />
      <feOffset
         dx="4.57967e-15"
         dy="4.41314e-15"
         result="offset"
         id="feOffset1536" />
      <feComposite
         in="SourceGraphic"
         in2="offset"
         operator="over"
         result="composite2"
         id="feComposite1538" />
    </filter>
    <filter
       id="drop-shadow-9">
      <feGaussianBlur
         in="SourceAlpha"
         result="blur"
         stdDeviation="2"
         id="feGaussianBlur5056" />
      <feOffset
         result="offsetBlur"
         dx="2"
         dy="2"
         id="feOffset5058" />
      <feBlend
         in="SourceGraphic"
         in2="offsetBlur"
         mode="normal"
         id="feBlend5060" />
    </filter>
    <filter
       id="drop-shadow-2">
      <feGaussianBlur
         in="SourceAlpha"
         result="blur"
         stdDeviation="2"
         id="feGaussianBlur6807" />
      <feOffset
         result="offsetBlur"
         dx="2"
         dy="2"
         id="feOffset6809" />
      <feBlend
         in="SourceGraphic"
         in2="offsetBlur"
         mode="normal"
         id="feBlend6811" />
    </filter>
    <filter
       id="drop-shadow-2-8">
      <feGaussianBlur
         in="SourceAlpha"
         result="blur"
         stdDeviation="2"
         id="feGaussianBlur6807-2" />
      <feOffset
         result="offsetBlur"
         dx="2"
         dy="2"
         id="feOffset6809-8" />
      <feBlend
         in="SourceGraphic"
         in2="offsetBlur"
         mode="normal"
         id="feBlend6811-0" />
    </filter>
    <filter
       id="drop-shadow-6">
      <feGaussianBlur
         in="SourceAlpha"
         result="blur"
         stdDeviation="2"
         id="feGaussianBlur5056-9" />
      <feOffset
         result="offsetBlur"
         dx="2"
         dy="2"
         id="feOffset5058-0" />
      <feBlend
         in="SourceGraphic"
         in2="offsetBlur"
         mode="normal"
         id="feBlend5060-9" />
    </filter>
    <filter
       id="drop-shadow-27">
      <feGaussianBlur
         in="SourceAlpha"
         result="blur"
         stdDeviation="2"
         id="feGaussianBlur5056-5" />
      <feOffset
         result="offsetBlur"
         dx="2"
         dy="2"
         id="feOffset5058-6" />
      <feBlend
         in="SourceGraphic"
         in2="offsetBlur"
         mode="normal"
         id="feBlend5060-96" />
    </filter>
    <filter
       id="drop-shadow-2-88">
      <feGaussianBlur
         in="SourceAlpha"
         result="blur"
         stdDeviation="2"
         id="feGaussianBlur6807-1" />
      <feOffset
         result="offsetBlur"
         dx="2"
         dy="2"
         id="feOffset6809-5" />
      <feBlend
         in="SourceGraphic"
         in2="offsetBlur"
         mode="normal"
         id="feBlend6811-7" />
    </filter>
    <filter
       id="drop-shadow-6-3">
      <feGaussianBlur
         in="SourceAlpha"
         result="blur"
         stdDeviation="2"
         id="feGaussianBlur5056-9-4" />
      <feOffset
         result="offsetBlur"
         dx="2"
         dy="2"
         id="feOffset5058-0-0" />
      <feBlend
         in="SourceGraphic"
         in2="offsetBlur"
         mode="normal"
         id="feBlend5060-9-8" />
    </filter>
    <linearGradient
       inkscape:collect="always"
       id="linearGradient12530">
      <stop
         style="stop-color:#dfb459;stop-opacity:1"
         offset="0"
         id="stop12526" />
      <stop
         id="stop16843"
         offset="0.04123921"
         style="stop-color:#dead54;stop-opacity:1" />
      <stop
         id="stop12556"
         offset="0.08247842"
         style="stop-color:#e1b85f;stop-opacity:1" />
      <stop
         id="stop12532"
         offset="0.16495684"
         style="stop-color:#dba84d;stop-opacity:1" />
      <stop
         style="stop-color:#dfb765;stop-opacity:1"
         offset="0.3052367"
         id="stop12564" />
      <stop
         style="stop-color:#d8a94e;stop-opacity:1"
         offset="0.53886235"
         id="stop12558" />
      <stop
         id="stop12562"
         offset="0.58579648"
         style="stop-color:#d5ab53;stop-opacity:1" />
      <stop
         style="stop-color:#e0bf6e;stop-opacity:1"
         offset="0.83974683"
         id="stop12534" />
      <stop
         id="stop16845"
         offset="0.92426348"
         style="stop-color:#daae52;stop-opacity:1" />
      <stop
         id="stop12560"
         offset="0.96230692"
         style="stop-color:#d9af57;stop-opacity:1" />
      <stop
         style="stop-color:#e1b663;stop-opacity:1"
         offset="1"
         id="stop12528" />
    </linearGradient>
    <filter
       id="drop-shadow-6-2">
      <feGaussianBlur
         in="SourceAlpha"
         result="blur"
         stdDeviation="2"
         id="feGaussianBlur5056-9-9" />
      <feOffset
         result="offsetBlur"
         dx="2"
         dy="2"
         id="feOffset5058-0-7" />
      <feBlend
         in="SourceGraphic"
         in2="offsetBlur"
         mode="normal"
         id="feBlend5060-9-0" />
    </filter>
    <linearGradient
       inkscape:collect="always"
       xlink:href="#linearGradient12530"
       id="linearGradient2259"
       x1="148.57835"
       y1="49.825951"
       x2="130.3233"
       y2="49.825951"
       gradientUnits="userSpaceOnUse"
       spreadMethod="repeat" />
    <filter
       id="drop-shadow-6-6">
      <feGaussianBlur
         in="SourceAlpha"
         result="blur"
         stdDeviation="2"
         id="feGaussianBlur5056-9-8" />
      <feOffset
         result="offsetBlur"
         dx="2"
         dy="2"
         id="feOffset5058-0-1" />
      <feBlend
         in="SourceGraphic"
         in2="offsetBlur"
         mode="normal"
         id="feBlend5060-9-7" />
    </filter>
    <filter
       id="drop-shadow-6-9">
      <feGaussianBlur
         in="SourceAlpha"
         result="blur"
         stdDeviation="2"
         id="feGaussianBlur5056-9-7" />
      <feOffset
         result="offsetBlur"
         dx="2"
         dy="2"
         id="feOffset5058-0-8" />
      <feBlend
         in="SourceGraphic"
         in2="offsetBlur"
         mode="normal"
         id="feBlend5060-9-3" />
    </filter>
    <filter
       id="drop-shadow-6-23">
      <feGaussianBlur
         in="SourceAlpha"
         result="blur"
         stdDeviation="2"
         id="feGaussianBlur5056-9-87" />
      <feOffset
         result="offsetBlur"
         dx="2"
         dy="2"
         id="feOffset5058-0-9" />
      <feBlend
         in="SourceGraphic"
         in2="offsetBlur"
         mode="normal"
         id="feBlend5060-9-6" />
    </filter>
    <filter
       id="drop-shadow-6-1">
      <feGaussianBlur
         in="SourceAlpha"
         result="blur"
         stdDeviation="2"
         id="feGaussianBlur5056-9-0" />
      <feOffset
         result="offsetBlur"
         dx="2"
         dy="2"
         id="feOffset5058-0-3" />
      <feBlend
         in="SourceGraphic"
         in2="offsetBlur"
         mode="normal"
         id="feBlend5060-9-4" />
    </filter>
    <filter
       id="drop-shadow-2-84-1-4">
      <feGaussianBlur
         in="SourceAlpha"
         result="blur"
         stdDeviation="2"
         id="feGaussianBlur6807-9-0-2" />
      <feOffset
         result="offsetBlur"
         dx="2"
         dy="2"
         id="feOffset6809-5-3-5" />
      <feBlend
         in="SourceGraphic"
         in2="offsetBlur"
         mode="normal"
         id="feBlend6811-1-0-4" />
    </filter>
    <linearGradient
       id="linearGradient11760"
       inkscape:collect="always">
      <stop
         id="stop11738"
         offset="0"
         style="stop-color:#e5c37b;stop-opacity:1" />
      <stop
         style="stop-color:#e4bd76;stop-opacity:1"
         offset="0.04234359"
         id="stop11740" />
      <stop
         style="stop-color:#e7c781;stop-opacity:1"
         offset="0.09289452"
         id="stop11742" />
      <stop
         style="stop-color:#e2b86e;stop-opacity:1"
         offset="0.16495684"
         id="stop11744" />
      <stop
         id="stop11746"
         offset="0.3052367"
         style="stop-color:#e6c686;stop-opacity:1" />
      <stop
         id="stop11748"
         offset="0.53886235"
         style="stop-color:#dfb96f;stop-opacity:1" />
      <stop
         style="stop-color:#ddbb73;stop-opacity:1"
         offset="0.58579648"
         id="stop11750" />
      <stop
         id="stop11752"
         offset="0.83974683"
         style="stop-color:#e7ce8f;stop-opacity:1" />
      <stop
         style="stop-color:#e1bd73;stop-opacity:1"
         offset="0.92426348"
         id="stop11754" />
      <stop
         style="stop-color:#e0bf78;stop-opacity:1"
         offset="0.96230692"
         id="stop11756" />
      <stop
         id="stop11758"
         offset="1"
         style="stop-color:#e7c685;stop-opacity:1" />
    </linearGradient>
    <linearGradient
       inkscape:collect="always"
       xlink:href="#linearGradient11760"
       id="linearGradient15214"
       gradientUnits="userSpaceOnUse"
       x1="148.57835"
       y1="49.825951"
       x2="130.3233"
       y2="49.825951"
       spreadMethod="repeat" />
  </defs>
  <sodipodi:namedview
     pagecolor="#ffffff"
     bordercolor="#666666"
     borderopacity="1"
     objecttolerance="10"
     gridtolerance="10"
     guidetolerance="10"
     inkscape:pageopacity="0"
     inkscape:pageshadow="2"
     inkscape:window-width="3840"
     inkscape:window-height="2050"
     id="namedview1719"
     showgrid="false"
     inkscape:zoom="7.8666667"
     inkscape:cx="-18.835813"
     inkscape:cy="28.387302"
     inkscape:window-x="3828"
     inkscape:window-y="-12"
     inkscape:window-maximized="1"
     inkscape:current-layer="svg1717"
     inkscape:document-rotation="0" />
  <!--
Created by Hari Seldon and modified by orangain, licensed under Creative Commons Attribution-Share Alike 3.0 Unported.
See: https://creativecommons.org/licenses/by-sa/3.0/deed.en

Original file is available at: https://commons.wikimedia.org/wiki/File:Shogi_gyokusho(svg).svg
-->
  <filter
     id="drop-shadow">
    <feGaussianBlur
       in="SourceAlpha"
       result="blur"
       stdDeviation="2"
       id="feGaussianBlur1692" />
    <feOffset
       result="offsetBlur"
       dx="2"
       dy="2"
       id="feOffset1694" />
    <feBlend
       in="SourceGraphic"
       in2="offsetBlur"
       mode="normal"
       id="feBlend1696" />
  </filter>
  <g
     style="fill:url(#linearGradient2259);fill-opacity:1;filter:url(#drop-shadow-2-88)"
     transform="matrix(0.98185054,0,0,0.98185054,-100.00148,-23.218948)"
     id="g7764">
    <g
       transform="rotate(180,45.578499,23.8125)"
       id="g7762"
       style="fill:url(#linearGradient2259);fill-opacity:1.0">
      <path
         style="fill:#876419;fill-opacity:1;stroke-width:0.98185056"
         d="M 46.001953 6.0566406 L 45.865234 7.0117188 L 46.570312 7.0214844 L 46.001953 6.0566406 z M 46.570312 7.0214844 L 7.109375 7.0214844 L 13.402344 50.224609 L 12.957031 50.105469 L 13.525391 51.068359 L 26.425781 54.931641 C 26.514148 54.948332 26.602058 54.963925 26.691406 54.953125 L 39.857422 50.769531 L 46.570312 7.0214844 z "
         transform="matrix(-1.018485,0,0,-1.018485,-10.693005,23.976851)"
         id="path2263" />
      <path
         style="fill:url(#linearGradient15214);fill-opacity:1"
         inkscape:connector-curvature="0"
         d="m -37.299339,-31.009999 -13.408999,4.26 -6.837,44.557887 40.189999,1.13e-4 -6.535,-44.862 -13.138,-3.935 c -0.09,-0.017 -0.18,-0.032 -0.271,-0.021 z"
         id="path7760"
         sodipodi:nodetypes="ccccccc" />
    </g>
  </g>
  <path
     style="fill:#9c7526;stroke:none;stroke-width:1px;stroke-linecap:butt;stroke-linejoin:miter;stroke-opacity:1;fill-opacity:1"
     d="m 26.123444,53.988868 0.302339,0.942775 13.431641,-4.16211 -0.568347,-0.963348 z"
     id="path2272"
     inkscape:connector-curvature="0" />
  <g
     id="g1632"
     style="font-style:normal;font-variant:normal;font-weight:normal;font-stretch:normal;font-size:29.072px;line-height:1.25;font-family:PMingLiU;-inkscape-font-specification:PMingLiU;letter-spacing:0px;word-spacing:0px;display:inline;opacity:0.99;fill:#000000;fill-opacity:1;stroke:#000000;stroke-width:0.423169;stroke-miterlimit:4;stroke-dasharray:none;stroke-opacity:1"
     transform="matrix(-1.1958245,0,0,-1.075834,74.048942,83.993925)"
     aria-label="王">
    <path
       sodipodi:nodetypes="ccccccccccccccccccccc"
       inkscape:connector-curvature="0"
       id="path1630"
       style="font-style:normal;font-variant:normal;font-weight:normal;font-stretch:normal;font-family:MingLiU_HKSCS-ExtB;-inkscape-font-specification:MingLiU_HKSCS-ExtB;fill:#000000;fill-opacity:1;stroke:#000000;stroke-width:0.453165;stroke-linejoin:round;stroke-miterlimit:4;stroke-dasharray:none;stroke-opacity:1"
       d="m 41.364137,42.418759 v 8.086113 h 5.242152 l 0.83641,2.478001 h -6.078562 v 9.129483 H 51.42974 l 0.836382,2.869265 H 27.96378 l 0.836385,-2.869265 h 9.952038 V 52.982873 H 32.514892 L 33.351,50.504872 h 5.401203 V 42.418759 H 31.615795 L 30.77997,39.549494 h 18.596713 l -0.836163,2.869265 z" />
  </g>
</svg>

<?xml version="1.0" encoding="UTF-8" standalone="no"?>
<svg
   xmlns:dc="http://purl.org/dc/elements/1.1/"
   xmlns:cc="http://creativecommons.org/ns#"
   xmlns:rdf="http://www.w3.org/1999/02/22-rdf-syntax-ns#"
   xmlns:svg="http://www.w3.org/2000/svg"
   xmlns="http://www.w3.org/2000/svg"
   xmlns:xlink="http://www.w3.org/1999/xlink"
   xmlns:sodipodi="http://sodipodi.sourceforge.net/DTD/sodipodi-0.dtd"
   xmlns:inkscape="http://www.inkscape.org/namespaces/inkscape"
   viewBox="0 0 60 60"
   version="1.1"
   id="svg7347"
   sodipodi:docname="1GY.svg"
   inkscape:version="1.0.1 (3bc2e813f5, 2020-09-07)">
  <metadata
     id="metadata7351">
    <rdf:RDF>
      <cc:Work
         rdf:about="">
        <dc:format>image/svg+xml</dc:format>
        <dc:type
           rdf:resource="http://purl.org/dc/dcmitype/StillImage" />
        <dc:title></dc:title>
      </cc:Work>
    </rdf:RDF>
  </metadata>
  <sodipodi:namedview
     pagecolor="#ffffff"
     bordercolor="#666666"
     borderopacity="1"
     objecttolerance="10"
     gridtolerance="10"
     guidetolerance="10"
     inkscape:pageopacity="0"
     inkscape:pageshadow="2"
     inkscape:window-width="3840"
     inkscape:window-height="2050"
     id="namedview7349"
     showgrid="false"
     inkscape:zoom="11.879394"
     inkscape:cx="36.435104"
     inkscape:cy="24.353875"
     inkscape:window-x="-12"
     inkscape:window-y="-12"
     inkscape:window-maximized="1"
     inkscape:current-layer="svg7347" />
  <defs
     id="defs7331">
    <linearGradient
       inkscape:collect="always"
       xlink:href="#linearGradient12530"
       id="linearGradient2259"
       x1="148.57835"
       y1="49.825951"
       x2="130.3233"
       y2="49.825951"
       gradientUnits="userSpaceOnUse"
       spreadMethod="repeat" />
    <linearGradient
       inkscape:collect="always"
       id="linearGradient12530">
      <stop
         style="stop-color:#dfb459;stop-opacity:1"
         offset="0"
         id="stop12526" />
      <stop
         id="stop16843"
         offset="0.04123921"
         style="stop-color:#dead54;stop-opacity:1" />
      <stop
         id="stop12556"
         offset="0.08247842"
         style="stop-color:#e1b85f;stop-opacity:1" />
      <stop
         id="stop12532"
         offset="0.16495684"
         style="stop-color:#dba84d;stop-opacity:1" />
      <stop
         style="stop-color:#dfb765;stop-opacity:1"
         offset="0.3052367"
         id="stop12564" />
      <stop
         style="stop-color:#d8a94e;stop-opacity:1"
         offset="0.53886235"
         id="stop12558" />
      <stop
         id="stop12562"
         offset="0.58579648"
         style="stop-color:#d5ab53;stop-opacity:1" />
      <stop
         style="stop-color:#e0bf6e;stop-opacity:1"
         offset="0.83974683"
         id="stop12534" />
      <stop
         id="stop16845"
         offset="0.92426348"
         style="stop-color:#daae52;stop-opacity:1" />
      <stop
         id="stop12560"
         offset="0.96230692"
         style="stop-color:#d9af57;stop-opacity:1" />
      <stop
         style="stop-color:#e1b663;stop-opacity:1"
         offset="1"
         id="stop12528" />
    </linearGradient>
    <filter
       id="drop-shadow-2-88">
      <feGaussianBlur
         in="SourceAlpha"
         result="blur"
         stdDeviation="2"
         id="feGaussianBlur6807-1" />
      <feOffset
         result="offsetBlur"
         dx="2"
         dy="2"
         id="feOffset6809-5" />
      <feBlend
         in="SourceGraphic"
         in2="offsetBlur"
         mode="normal"
         id="feBlend6811-7" />
    </filter>
    <linearGradient
       inkscape:collect="always"
       xlink:href="#linearGradient11760"
       id="linearGradient15214"
       gradientUnits="userSpaceOnUse"
       x1="148.57835"
       y1="49.825951"
       x2="130.3233"
       y2="49.825951"
       spreadMethod="repeat" />
    <linearGradient
       id="linearGradient11760"
       inkscape:collect="always">
      <stop
         id="stop11738"
         offset="0"
         style="stop-color:#e5c37b;stop-opacity:1" />
      <stop
         style="stop-color:#e4bd76;stop-opacity:1"
         offset="0.04234359"
         id="stop11740" />
      <stop
         style="stop-color:#e7c781;stop-opacity:1"
         offset="0.09289452"
         id="stop11742" />
      <stop
         style="stop-color:#e2b86e;stop-opacity:1"
         offset="0.16495684"
         id="stop11744" />
      <stop
         id="stop11746"
         offset="0.3052367"
         style="stop-color:#e6c686;stop-opacity:1" />
      <stop
         id="stop11748"
         offset="0.53886235"
         style="stop-color:#dfb96f;stop-opacity:1" />
      <stop
         style="stop-color:#ddbb73;stop-opacity:1"
         offset="0.58579648"
         id="stop11750" />
      <stop
         id="stop11752"
         offset="0.83974683"
         style="stop-color:#e7ce8f;stop-opacity:1" />
      <stop
         style="stop-color:#e1bd73;stop-opacity:1"
         offset="0.92426348"
         id="stop11754" />
      <stop
         style="stop-color:#e0bf78;stop-opacity:1"
         offset="0.96230692"
         id="stop11756" />
      <stop
         id="stop11758"
         offset="1"
         style="stop-color:#e7c685;stop-opacity:1" />
    </linearGradient>
    <linearGradient
       inkscape:collect="always"
       xlink:href="#linearGradient12530"
       id="linearGradient8850"
       gradientUnits="userSpaceOnUse"
       x1="148.57835"
       y1="49.825951"
       x2="130.3233"
       y2="49.825951"
       spreadMethod="repeat" />
  </defs>
  <g
     style="fill:url(#linearGradient2259);fill-opacity:1;filter:url(#drop-shadow-2-88)"
     transform="matrix(0.98185771,0,0,0.98184989,-96.558271,-23.220616)"
     id="g7764">
    <g
       transform="rotate(180,45.578499,23.8125)"
       id="g7762"
       style="fill:url(#linearGradient8850);fill-opacity:1">
      <path
         style="fill:#876419;fill-opacity:1;stroke-width:0.981851"
         d="m 46.001953,6.0566406 -0.136719,0.9550782 0.705078,0.00977 z m 0.568359,0.9648438 H 7.109375 l 6.292969,43.2031246 -0.445313,-0.11914 0.56836,0.96289 12.90039,3.863282 c 0.08837,0.01669 0.176277,0.03228 0.265625,0.02148 l 13.166016,-4.183594 z"
         transform="matrix(-1.018485,0,0,-1.018485,-10.693005,23.976851)"
         id="path2263" />
      <path
         style="fill:url(#linearGradient15214);fill-opacity:1"
         inkscape:connector-curvature="0"
         d="m -37.299339,-31.009999 -13.408999,4.26 -6.837,44.557887 40.189999,1.13e-4 -6.535,-44.862 -13.138,-3.935 c -0.09,-0.017 -0.18,-0.032 -0.271,-0.021 z"
         id="path7760"
         sodipodi:nodetypes="ccccccc" />
    </g>
  </g>
  <path
     style="fill:#9c7526;fill-opacity:1;stroke:none;stroke-width:1px;stroke-linecap:butt;stroke-linejoin:miter;stroke-opacity:1"
     d="m 29.567578,53.987149 0.30234,0.942775 13.43174,-4.162108 -0.56835,-0.963347 z"
     id="path2272"
     inkscape:connector-curvature="0" />
  <g
     id="g1632"
     style="font-style:normal;font-variant:normal;font-weight:normal;font-stretch:normal;font-size:29.072px;line-height:1.25;font-family:PMingLiU;-inkscape-font-specification:PMingLiU;letter-spacing:0px;word-spacing:0px;display:inline;opacity:0.99;fill:#000000;fill-opacity:1;stroke:#000000;stroke-width:0.423169;stroke-miterlimit:4;stroke-dasharray:none;stroke-opacity:1"
     transform="matrix(-1.1958332,0,0,-1.0758333,77.493428,83.99219)"
     aria-label="王">
    <path
       sodipodi:nodetypes="ccccccccccccccccccccc"
       inkscape:connector-curvature="0"
       id="path1630"
       style="font-style:normal;font-variant:normal;font-weight:normal;font-stretch:normal;font-family:MingLiU_HKSCS-ExtB;-inkscape-font-specification:MingLiU_HKSCS-ExtB;fill:#000000;fill-opacity:1;stroke:#000000;stroke-width:0.453165;stroke-linejoin:round;stroke-miterlimit:4;stroke-dasharray:none;stroke-opacity:1"
       d="m 41.364137,42.418759 v 8.086113 h 5.242152 l 0.83641,2.478001 h -6.078562 v 9.129483 H 51.42974 l 0.836382,2.869265 H 27.96378 l 0.836385,-2.869265 h 9.952038 V 52.982873 H 32.514892 L 33.351,50.504872 h 5.401203 V 42.418759 H 31.615795 L 30.77997,39.549494 h 18.596713 l -0.836163,2.869265 z" />
  </g>
</svg>
